icon/mi/shop.svg

<?xml version="1.0" encoding="UTF-8"?>
<svg viewBox="0 0 15 15" xmlns="http://www.w3.org/2000/svg" id="shop" height="1em" width="1em">
  <path d="m13.33 5h-1.83l-.39-2.33c-.1601-.7182-.7017-1.2905-1.41-1.49-.3493-.1124-.7131-.173-1.08-.18h-2.24c-.3669.007-.7307.0676-1.08.18-.7083.1995-1.2499.7718-1.41 1.49l-.39 2.33h-1.83c-.2761-.0017-.5013.2208-.503.497-.0003.0519.0074.1035.023.153l1.88 6.3c.1964.6246.7753 1.0496 1.43 1.05h6c.651-.0047 1.2247-.4289 1.42-1.05l1.88-6.3c.0829-.2634-.0635-.5441-.3269-.627-.0463-.0146-.0945-.0223-.1431-.023zm-8.81 0 .36-2.17c.0807-.3625.3736-.6395.74-.7.2463-.0776.5019-.1213.76-.13h2.24c.2614.0078.5205.0515.77.13.3664.0605.6593.3375.74.7l.35 2.17h-6z"/>
</svg>

<svg height="15" width="15" xmlns="http://www.w3.org/2000/svg"><path d="M13.33 5H11.5l-.39-2.33A2 2 0 0 0 9.7 1.18 3.76 3.76 0 0 0 8.62 1H6.38a3.76 3.76 0 0 0-1.08.18 2 2 0 0 0-1.41 1.49L3.5 5H1.67a.5.5 0 0 0-.48.65l1.88 6.3A1.5 1.5 0 0 0 4.5 13h6a1.5 1.5 0 0 0 1.42-1.05l1.88-6.3a.5.5 0 0 0-.47-.65zM4.52 5l.36-2.17a.91.91 0 0 1 .74-.7c.246-.078.502-.121.76-.13h2.24c.261.008.52.051.77.13a.91.91 0 0 1 .74.7L10.48 5h-6z"/></svg>
